teeny/solid/nintendo-switch.svg

<svg width="15" height="15" viewBox="0 0 15 15" fill="none" xmlns="http://www.w3.org/2000/svg">
<path d="M3.5 4C3.22386 4 3 4.22386 3 4.5C3 4.77614 3.22386 5 3.5 5C3.77614 5 4 4.77614 4 4.5C4 4.22386 3.77614 4 3.5 4Z" fill="black"/>
<path fill-rule="evenodd" clip-rule="evenodd" d="M7 0.500002L7 12.5C7 12.6326 6.94732 12.7598 6.85355 12.8536C6.75978 12.9473 6.63261 13 6.5 13H3.5C1.567 13 0 11.433 0 9.5V3.5C0 1.567 1.56701 0 3.5 0L6.5 2.0047e-06C6.77614 2.19559e-06 7 0.22386 7 0.500002ZM2 4.5C2 3.67157 2.67157 3 3.5 3C4.32843 3 5 3.67157 5 4.5C5 5.32843 4.32843 6 3.5 6C2.67157 6 2 5.32843 2 4.5Z" fill="black"/>
<path d="M11.5 10C11.2239 10 11 10.2239 11 10.5C11 10.7761 11.2239 11 11.5 11C11.7761 11 12 10.7761 12 10.5C12 10.2239 11.7761 10 11.5 10Z" fill="black"/>
<path fill-rule="evenodd" clip-rule="evenodd" d="M15 5.5V11.5C15 13.433 13.433 15 11.5 15H8.5C8.22386 15 8 14.7761 8 14.5V2.5C8 2.36739 8.05268 2.24021 8.14645 2.14645C8.24022 2.05268 8.36739 2 8.5 2L11.5 2C13.433 2 15 3.56701 15 5.5ZM10 10.5C10 9.67157 10.6716 9 11.5 9C12.3284 9 13 9.67157 13 10.5C13 11.3284 12.3284 12 11.5 12C10.6716 12 10 11.3284 10 10.5Z" fill="black"/>
</svg>

<svg viewBox="0 0 15 15" xmlns="http://www.w3.org/2000/svg"><g><path d="M3.5 4c-.28 0-.5.22-.5.5 0 .27.22.5.5.5 .27 0 .5-.23.5-.5 0-.28-.23-.5-.5-.5Z"/><path fill-rule="evenodd" d="M7 .5v11.99c0 .13-.06.25-.15.35 -.1.09-.23.14-.36.14h-3c-1.933 0-3.5-1.57-3.5-3.5v-6c0-1.933 1.56-3.5 3.5-3.5l3 0c.27 0 .5.22.5.5ZM2 4.49c0-.83.67-1.5 1.5-1.5 .82 0 1.5.67 1.5 1.5 0 .82-.68 1.5-1.5 1.5 -.83 0-1.5-.68-1.5-1.5Z"/><path d="M11.5 10c-.28 0-.5.22-.5.5 0 .27.22.5.5.5 .27 0 .5-.23.5-.5 0-.28-.23-.5-.5-.5Z"/><path fill-rule="evenodd" d="M15 5.5v6c0 1.93-1.57 3.5-3.5 3.5h-3c-.28 0-.5-.23-.5-.5v-12c0-.14.05-.26.14-.36 .09-.1.22-.15.35-.15h3c1.93 0 3.5 1.56 3.5 3.5Zm-5 5c0-.83.67-1.5 1.5-1.5 .82 0 1.5.67 1.5 1.5 0 .82-.68 1.5-1.5 1.5 -.83 0-1.5-.68-1.5-1.5Z"/></g></svg>
